src/img/header/email.svg

<svg width="31" height="31" viewBox="0 0 31 31" fill="none" xmlns="http://www.w3.org/2000/svg">
<path d="M28.4166 3.875H2.58335C1.15856 3.875 0 5.03356 0 6.45835V24.5417C0 25.9664 1.15856 27.125 2.58335 27.125H28.4167C29.8414 27.125 31 25.9664 31 24.5416V6.45835C31 5.03356 29.8414 3.875 28.4166 3.875ZM2.58335 5.16665H28.4167C28.5119 5.16665 28.5957 5.20134 28.6851 5.22096C26.4485 7.26787 19.0325 14.0523 16.4373 16.3905C16.2342 16.5734 15.9069 16.7916 15.5001 16.7916C15.0932 16.7916 14.7659 16.5734 14.5622 16.3899C11.9672 14.052 4.55076 7.26726 2.31459 5.22108C2.40407 5.20146 2.48811 5.16665 2.58335 5.16665ZM1.29165 24.5416V6.45835C1.29165 6.33181 1.32979 6.21701 1.36394 6.10137C3.07572 7.66808 8.2503 12.4019 11.6056 15.453C8.2612 18.3258 3.08529 23.233 1.35988 24.8783C1.32943 24.7685 1.29165 24.661 1.29165 24.5416ZM28.4166 25.8334H2.58335C2.48018 25.8334 2.38845 25.7974 2.29212 25.7744C4.07505 24.0747 9.28389 19.1393 12.5695 16.3285C12.9978 16.7171 13.389 17.0713 13.6975 17.3492C14.2298 17.8298 14.8529 18.0834 15.5 18.0834C16.1471 18.0834 16.7702 17.8298 17.3019 17.3498C17.6104 17.0718 18.002 16.7172 18.4305 16.3285C21.7163 19.139 26.9244 24.074 28.7079 25.7744C28.6115 25.7974 28.5199 25.8334 28.4166 25.8334ZM29.7084 24.5416C29.7084 24.661 29.6706 24.7685 29.6402 24.8783C27.9141 23.2321 22.7388 18.3255 19.3945 15.4531C22.7499 12.4019 27.9237 7.66856 29.6361 6.10125C29.6702 6.21689 29.7084 6.33175 29.7084 6.45829V24.5416V24.5416Z" fill="black"/>
</svg>

<svg width="31" height="31" fill="none" xmlns="http://www.w3.org/2000/svg"><path d="M28.417 3.875H2.583A2.586 2.586 0 0 0 0 6.458v18.084a2.586 2.586 0 0 0 2.583 2.583h25.834A2.586 2.586 0 0 0 31 24.542V6.458a2.586 2.586 0 0 0-2.583-2.583ZM2.583 5.167h25.834c.095 0 .179.034.268.054-2.236 2.047-9.652 8.831-12.248 11.17-.203.182-.53.4-.937.4-.407 0-.734-.218-.938-.401C11.967 14.052 4.551 7.267 2.315 5.22c.09-.02.173-.054.268-.054ZM1.292 24.542V6.458c0-.126.038-.241.072-.357 1.712 1.567 6.886 6.3 10.242 9.352-3.345 2.873-8.52 7.78-10.246 9.425-.03-.11-.068-.217-.068-.336Zm27.125 1.291H2.583c-.103 0-.195-.036-.29-.059 1.782-1.7 6.99-6.635 10.276-9.446.429.39.82.743 1.128 1.021.533.48 1.156.734 1.803.734s1.27-.253 1.802-.733l1.128-1.022c3.286 2.811 8.494 7.746 10.278 9.446-.096.023-.188.06-.291.06Zm1.291-1.291c0 .119-.037.226-.068.336-1.726-1.646-6.901-6.552-10.245-9.425 3.355-3.051 8.529-7.784 10.241-9.352.034.116.072.23.072.357v18.084Z" fill="#000"/></svg>
